X:215
T: Connie Walshe's
S: "Treoir"
Z: B.Black
M: 12/8
L: 1/8
R: slide
K: D
d |: Bcd Bcd c2 B A2 A | Bcd e2 f g3 efg |
a2 f gfe f2 d A2 d | Bcd e2 c d3-d2 :|
a2 f gfe f2 d A3 | Bcd e2 f g3 f2 g |
a2 f gfe f2 d A3 | Bcd e2 c d3-d2 :|
